X:1
T:Title
%%score 1 { 2 | 3 }
L:1/8
Q:1/4=95
M:2/4
K:G
V:1 treble nm="Grand Piano, Soprano"
V:2 bass nm="Choir Pad, Bass"
V:3 bass 
V:1
 [B,D][B,D] [B,D][DG] | [DA][DB] [DB]2 | [DA][DG] [DG][GB] | [GB] [FA]3 | [CD][B,D] [B,D][DG] | %5
w: By~William~James~Kirkpatrick * * *|||||
 [DA][DB] [DB]2 | [Gd][Gd]- [Gd]/[GB]/[FA] | [FB] [DG]2 [DB] | [DB] [B,D]3 | [B,D][CE] [EG][DG]- | %10
w: |||||
 [DG] [FA]3 | [FA][GB] [Gd][Gd] | [Gd] [Gd]3 | [GB][Gd] [Gd][GB] | [CG][DB]- [DB]/[DG]/[DA] | %15
w: |||||
 [DA] [DG]3- | [DG]4 |] %17
w: ||
V:2
 G,G, G,G, | F,G, G,2 | CB, B,D | D D3 | F,G, G,G, | F,G, G,2 | B,B,- B,/[K:treble]D/C | D B,2 G, | %8
 G, G,3 | G,,/4G,,/4G,/G, CB,- | B, D3 | D,/4D,/4D/D B,B, | B, B,3 | G,/4G,/4D/B, B,[K:treble]D | %14
 B,D- D/B,/C | C B,3- | B,4 |] %17
V:3
 G,,G,, G,,B,, | .D,2 z2 | G,G, G,G, | G, D,3 | D,G,, G,,B,, | .D,2 z2 | G,D,- D,/D,/D, | %7
 D, .G,,3 | z G,,3 | z/ G,,/C, C,G,,- | G,, D,3 | z/ D,/G, G,G, | G, G,3 | z/ G,/G, G,G, | %14
 G,D,- D,/D,/D, | D, G,,3- | G,,4 |] %17

